resources/svg/major-remove-product.svg

<svg xmlns="http://www.w3.org/2000/svg" viewBox="0 0 20 20" fill="currentColor"><path d="M11 1H17C18.1046 1 19 1.89543 19 3V9C19 9.33853 19 10 17.5 10H16C12.6863 10 10 12.6863 10 16V18C10 19.17 9.09077 19.2143 7.99998 18.8296C7.59053 18.6852 7.20617 18.4493 6.87868 18.1218L1.87868 13.1218C0.707107 11.9502 0.707107 10.0507 1.87868 8.87913L8.87868 1.87913C9.46447 1.29335 10.2322 1 11 1ZM14 8C15.1046 8 16 7.10457 16 6C16 4.89543 15.1046 4 14 4C12.8954 4 12 4.89543 12 6C12 7.10457 12.8954 8 14 8ZM19.0003 13.9958C19.2654 13.9958 19.5197 14.1011 19.7072 14.2886C19.8947 14.4761 20 14.7304 20 14.9955C20 15.2606 19.8947 15.5149 19.7072 15.7024C19.5197 15.8899 19.2654 15.9952 19.0003 15.9952H13.0021C12.737 15.9952 12.4827 15.8899 12.2952 15.7024C12.1078 15.5149 12.0024 15.2606 12.0024 14.9955C12.0024 14.7304 12.1078 14.4761 12.2952 14.2886C12.4827 14.1011 12.737 13.9958 13.0021 13.9958H19.0003Z" fill="#5C5F62"/></svg>

<svg xmlns="http://www.w3.org/2000/svg" viewBox="0 0 20 20" fill="currentColor"><path d="M11 1h6a2 2 0 0 1 2 2v6c0 .339 0 1-1.5 1h-1.5a6 6 0 0 0-6 6v2c0 1.17-.91 1.214-2 .83a2.988 2.988 0 0 1-1.121-.708l-5-5a3 3 0 0 1 0-4.243l7-7a2.991 2.991 0 0 1 2.121-.879Zm3 7a2 2 0 1 0 0-4 2 2 0 0 0 0 4Zm5 5.996a1 1 0 1 1 0 2h-5.998a1 1 0 1 1 0-2h5.998Z"/></svg>
